X:6634
T:Gypsies hornpipe, The
R:Hornpipe
O:Scotland
M:4/4
K:Em
(3def|\
gfed edBd|ed (3efg B2BA|GFGA BABd|e2A2 A2ef|\
gfed edBd|ed (3efg B2BA|
GFGA BcBA|G2E2 E2::\
gf|\
e2B2 B2gf|(3efe B2 B2gf|
edef gfga|b2e2 e2ga|\
bgaf g2gf|ed (3efg B2BA|GFGA BcBA|G2E2 E2:|
